icons/measure-building-height-top-shadow-24-f.svg

<svg id="icons" xmlns="http://www.w3.org/2000/svg" viewBox="0 0 24 24"><title>measure-building-height-top-shadow-24-f</title><path d="M11,23V0H1V23H0v1H24V23ZM5,5H3V3H5ZM9,5H7V3H9ZM5,10H3V8H5Zm4,0H7V8H9ZM5,15H3V13H5Zm4,0H7V13H9ZM5,20H3V18H5Zm4,0H7V18H9ZM13.142,5.77521,12.09009,6.355l.349-2.47656L14.718,4.90649l-1.05.57782,7.62866,13.848,1.05-.5788L21.99957,21.229l-2.28082-1.027,1.051-.5788Z"/></svg>

<svg xmlns="http://www.w3.org/2000/svg" viewBox="0 0 24 24"><path d="M11 23V0H1v23H0v1h24v-1zM5 5H3V3h2zm4 0H7V3h2zm-4 5H3V8h2zm4 0H7V8h2zm-4 5H3v-2h2zm4 0H7v-2h2zm-4 5H3v-2h2zm4 0H7v-2h2zm4.142-14.225l-1.052.58.35-2.477 2.278 1.028-1.05.578 7.629 13.848 1.05-.578L22 21.229l-2.281-1.027 1.05-.579z"/></svg>
